cmd/conneroh/_static/dist/svg/wand-sparkles.svg

<svg height="18" viewBox="0 0 18 18" width="18" xmlns="http://www.w3.org/2000/svg"><path d="m21.640625 3.640625-1.28125-1.28125c-.229167-.229167-.536458-.359375-.859375-.359375s-.630208.130208-.859375.359375l-16.28125 16.28125c-.229167.229167-.359375.536458-.359375.859375s.130208.630208.359375.859375l1.28125 1.28125c.223958.229167.536458.364583.859375.364583s.635417-.135416.859375-.364583l16.28125-16.28125c.229167-.223958.364583-.536458.364583-.859375s-.135416-.635417-.364583-.859375m-7.640625 3.359375 3 3m-12-4v4m14 4v4m-9-16v2m-3 4h-4m18 8h-4m-6-13h-2" fill="none" stroke="#fff" stroke-linecap="round" stroke-linejoin="round" stroke-width="2" transform="scale(.75)"/></svg>

<svg xmlns="http://www.w3.org/2000/svg" width="24" height="24" fill="none" stroke="white" stroke-linecap="round" stroke-linejoin="round" stroke-width="2">
    <path d="m21.64 3.64-1.28-1.28a1.21 1.21 0 0 0-1.72 0L2.36 18.64a1.21 1.21 0 0 0 0 1.72l1.28 1.28a1.2 1.2 0 0 0 1.72 0L21.64 5.36a1.2 1.2 0 0 0 0-1.72M14 7l3 3M5 6v4m14 4v4M10 2v2M7 8H3m18 8h-4M11 3H9"/>
</svg>
